X: 32854
T: Port Seán Gabha
R: jig
M: 6/8
K: Gmajor
|:F|GEF G2 A|Bee gfe|dBG A^GA|BGE E2 F|
G2 F G2 A|Be/e/e gfe|d2 B A^GA|BEF G2:|
|:B|deB d2 B|dee ede|fdB BAF|GED E2 F|
GEF G2 A|B2 e gfe|dcB A^GA|GE^D E2:|

